X:267
T:Polska efter August Nyholm
T:Variant av Strömkarlen spelar (SvL Häls. 267)
R:Polska
B:Svenska Låtar Hälsingland
O:Delsbo, Hälsingland
S:August Nyholm
M:3/4
L:1/8
K:Gm
D|Gz G>^F G>A|B>A B>c d2|d>^c d>A B>G|1 ^F2 G2 z:|2 ^F2 G2 z2]|
|:Bz B>d f>d|d>c c>A F2|Gz G>B d>B|B>A A>^F D2|
Gz G>^F G>A|B>A B>c d2|d>^c d>A B>G|1 ^F2 G2 z2:|2 ^F2 G2 z]|

